src/assets/icons/arrow-circle.svg

<svg width="100%" height="100%" viewBox="0 0 42 42" fill="none" xmlns="http://www.w3.org/2000/svg">
<path d="M21 0C9.42022 0 0 9.42022 0 21C0 32.5798 9.42022 42 21 42C32.5798 42 42 32.5798 42 21C42 9.42022 32.5798 0 21 0ZM27.4873 22.2373L18.7373 30.9872C18.396 31.3285 17.948 31.5 17.5 31.5C17.052 31.5 16.6039 31.3285 16.2627 30.9872C15.5785 30.303 15.5785 29.197 16.2627 28.5128L23.7755 21L16.2628 13.4873C15.5786 12.803 15.5786 11.697 16.2628 11.0128C16.947 10.3286 18.053 10.3286 18.7373 11.0128L27.4873 19.7628C28.1715 20.447 28.1715 21.553 27.4873 22.2373Z" fill="#444444"/>
</svg>

<svg xmlns="http://www.w3.org/2000/svg" width="100%" height="100%" viewBox="0 0 42 42" fill="none"><path d="M21 0C9.42 0 0 9.42 0 21s9.42 21 21 21 21-9.42 21-21S32.58 0 21 0zm6.487 22.237l-8.75 8.75c-.341.341-.789.513-1.237.513s-.896-.172-1.237-.513a1.75 1.75 0 0 1 0-2.474L23.776 21l-7.513-7.513a1.75 1.75 0 0 1 2.475-2.474l8.75 8.75a1.75 1.75 0 0 1 0 2.475z" fill="#444"/></svg>
